Educa/src/img/icons/pen.svg

<svg width="24" height="24" viewBox="0 0 24 24" fill="none" xmlns="http://www.w3.org/2000/svg">
<path d="M17.8016 7.50351C18.071 8.2576 17.91 9.14194 17.2947 9.75733C16.4514 10.6007 15.0862 10.6008 14.2428 9.75728C13.3994 8.9139 13.3992 7.54883 14.2428 6.70525C14.8551 6.09293 15.7397 5.928 16.4965 6.19844L22.695 0L9.16121 2.50627L5.36343 11.0514C5.59401 11.282 12.1408 17.8288 12.9487 18.6367L12.9488 18.6367L21.4938 14.8389L24.0001 1.30512L17.8016 7.50351Z" fill="#7118EF"/>
<path d="M3.05203 10.7747L0 13.8267L10.1734 24.0001L13.2254 20.9481C12.5199 20.2426 3.56235 11.285 3.05203 10.7747Z" fill="#7118EF"/>
<path d="M15.0494 8.23138C15.0494 8.6289 15.3713 8.95074 15.7688 8.95074C15.9609 8.95074 16.1415 8.87588 16.2774 8.74006L16.2774 8.73997C16.5585 8.45894 16.5585 8.00387 16.2774 7.72264C16.1415 7.58683 15.9609 7.51196 15.7688 7.51196C15.3712 7.51201 15.0494 7.83376 15.0494 8.23138Z" fill="#7118EF"/>
</svg>

<svg xmlns="http://www.w3.org/2000/svg" width="24" height="24" fill="#7118ef" xmlns:v="https://vecta.io/nano"><path d="M17.802 7.504a2.16 2.16 0 0 1-3.559 2.254c-.844-.843-.844-2.208 0-3.052a2.16 2.16 0 0 1 2.254-.507L22.695 0 9.161 2.506l-3.798 8.545 7.585 7.585h0l8.545-3.798L24 1.305l-6.198 6.198zm-14.75 3.271L0 13.827 10.173 24l3.052-3.052L3.052 10.775zm11.997-2.544a.72.72 0 0 0 .719.719c.192 0 .373-.075.509-.211h0a.72.72 0 0 0 0-1.017c-.136-.136-.316-.211-.509-.211a.72.72 0 0 0-.719.719z"/></svg>
